X:1046
T:Earl of Breadalbane's Birth Day,
T:a Strathspey.
M:C|
L:1/8
Q:1/4=120
I: :| ||
Z:Jack Campin * www.campin.me.uk * 2009
K:E Minor
d|B<EA>E G/A/B d2| ADF>D FAAd       |B>EGE G/A/B d2 |FD F/G/A/F/ BEE:|
B|eBeB   e/e/e g2|Td>efg a/g/f/e/ dg|eBeB  e/e/e g2 |dA B/A/G/F/ GEEB|
  eBeB   e/e/e g2|Td>efg a/g/f/e/ dg|fbef  d<g``Tf>e|dBAF        GEE|]

